!!!!SEGMENT: pl-kk--kk-i-11--006_fierszewicz-daniel--o-salutaris-hostia.krn
!!!cenid: 16xx:1245
!!!COM: Fierszewicz, Daniel
!!!COM-rismID: pe30021418
!!!CDT: <1702->1734
!!!CNT:
!!!OTL: O salutaris hostia
!!!PDT:
!!!AGN: Sacred
!!!SMS-siglum: PL-Kk
!!!SMS-shelfmark: Kk.I.11
!!!SMS-shelfwork: 006 W
!!!SMS-variant:
!!!SMS-altvar:
!!!NIFC-rismSourceID: 1001154156
!!!NIFC-islandoraID: pl-kk:2582
!!!URL-pdf-islandora: https://repozytorium.nifc.pl/islandora/object/pl-kk%3A2582/datastream/PDF/view
!!!URL-scan: https://polish.musicsources.pl/pl/lokalizacje/galeria/rekopisy/5745 @EN{Scan on Polish Music Herritage in Open Access Website} @PL{Skany w portalu Dziedzictwo Muzyki Polskiej w otwartym dostępie}
!!!ONB-nifc: UWAGA: T (skan 0022), B (0018), pierwszy system.
!!!AIN: 1 bass 1 tenor
!!!key:
**kern	**text	**text	**text	**text	**text	**text	**text	**text	**text	**text	**text	**kern	**text	**text	**text	**text	**text	**text	**text	**text	**text	**text
*part2	*part2	*part2	*part2	*part2	*part2	*part2	*part2	*part2	*part2	*part2	*part2	*part1	*part1	*part1	*part1	*part1	*part1	*part1	*part1	*part1	*part1	*part1
*staff2	*staff2	*staff2	*staff2	*staff2	*staff2	*staff2	*staff2	*staff2	*staff2	*staff2	*staff2	*staff1	*staff1	*staff1	*staff1	*staff1	*staff1	*staff1	*staff1	*staff1	*staff1	*staff1
*Ibass	*	*	*	*	*	*	*	*	*	*	*	*Itenor	*	*	*	*	*	*	*	*	*	*
*I"[Bassus]	*	*	*	*	*	*	*	*	*	*	*	*I"[Tenor]	*	*	*	*	*	*	*	*	*	*
*I'B	*	*	*	*	*	*	*	*	*	*	*	*I'T	*	*	*	*	*	*	*	*	*	*
*clefF4	*	*	*	*	*	*	*	*	*	*	*	*clefC4	*	*	*	*	*	*	*	*	*	*
*k[]	*	*	*	*	*	*	*	*	*	*	*	*k[]	*	*	*	*	*	*	*	*	*	*
*G:	*	*	*	*	*	*	*	*	*	*	*	*G:	*	*	*	*	*	*	*	*	*	*
*M2/1	*	*	*	*	*	*	*	*	*	*	*	*M2/1	*	*	*	*	*	*	*	*	*	*
*met(c|)	*	*	*	*	*	*	*	*	*	*	*	*met(c|)	*	*	*	*	*	*	*	*	*	*
*2\right	*	*	*	*	*	*	*	*	*	*	*	*2\right	*	*	*	*	*	*	*	*	*	*
=1-	=1-	=1-	=1-	=1-	=1-	=1-	=1-	=1-	=1-	=1-	=1-	=1-	=1-	=1-	=1-	=1-	=1-	=1-	=1-	=1-	=1-	=1-
1r	.	.	.	.	.	.	.	.	.	.	.	1G	O	V-	1. Gau-	2 Cu-	3 Hic	4 Ty-	5 No-	6 Sic	7 Po-	8 Er-
*	*	*	*	*	*	*	*	*	*	*	*	*lig	*	*	*	*	*	*	*	*	*	*
1D	O	V-	1. Gau-	2 Cu-	3 Hic	4 Ty-	5 No-	6. Sic	7 Po-	8 Er-	.	1A	sa-	-ni-	-de	-jus	cer-	-ran-	-vum	Sta-	-scen-	-go
=2-	=2-	=2-	=2-	=2-	=2-	=2-	=2-	=2-	=2-	=2-	=2-	=2-	=2-	=2-	=2-	=2-	=2-	=2-	=2-	=2-	=2-	=2-
1E	Sa-	-ni	-de	-jus	cer-	-ran-	-vum	Sta-	-scen-	-go	.	1G	.	.	.	.	.	.	.	.	.	.
*	*	*	*	*	*	*	*	*	*	*	*	*Xlig	*	*	*	*	*	*	*	*	*	*
2D/	-lu-	tri-	Ma-	be-	-tans	-ni	pan-	ni-	tes	foe-	.	1F#X	-lu-	-tri-	.	.	.	.	.	.	.	.
4D/	-ta-	-no-	-ter	-nig-	pro	tru-	-dit	-sla-	e-	-lix	.	.	.	.	.	.	.	.	.	.	.	.
4C/	.	.	.	.	.	.	.	.	.	.	.	.	.	.	.	.	.	.	.	.	.	.
=3-	=3-	=3-	=3-	=3-	=3-	=3-	=3-	=3-	=3-	=3-	=3-	=3-	=3-	=3-	=3-	=3-	=3-	=3-	=3-	=3-	=3-	=3-
*	*	*	*	*	*	*	*	*	*	*	*	*lig	*	*	*	*	*	*	*	*	*	*
!	!	!	!	!	!	!	!	!	!	!	!	!LO:TX:t=D Fierßewitz	!	!	!	!	!	!	!	!	!	!
1BB	-ris	-q(ue)	Po-	-na	Ju-	-cu-	mi-	-us	-jus	Cra-	.	1G	-ta-	-no-	Ma-	be-	-tans	-ni	pan-	-ni-	tes	foe-
2AA/	ho-	Do-	-lo-	gra-	-sti-	len-	-ra-	Pon-	me-	-co-	.	1A	.	.	.	.	.	.	.	.	.	.
4D/	.	.	.	.	.	.	.	.	.	.	.	.	.	.	.	.	.	.	.	.	.	.
4C/	.	.	.	.	.	.	.	.	.	.	.	.	.	.	.	.	.	.	.	.	.	.
*	*	*	*	*	*	*	*	*	*	*	*	*Xlig	*	*	*	*	*	*	*	*	*	*
=4-	=4-	=4-	=4-	=4-	=4-	=4-	=4-	=4-	=4-	=4-	=4-	=4-	=4-	=4-	=4-	=4-	=4-	=4-	=4-	=4-	=4-	=4-
2BB/	.	.	.	.	.	.	.	.	.	.	.	1G,	-ris	-q(ue)	-ter	-nig-	pro	tru-	-dit,	-sla-	e-	-lix
4C/	.	.	.	.	.	.	.	.	.	.	.	.	.	.	.	.	.	.	.	.	.	.
4BB/	.	.	.	.	.	.	.	.	.	.	.	.	.	.	.	.	.	.	.	.	.	.
*	*	*	*	*	*	*	*	*	*	*	*	*lig	*	*	*	*	*	*	*	*	*	*
2.AA/	.	.	.	.	.	.	.	.	.	.	.	1A	ho-	Do-	Po-	-na	Ju-	-cu-	mi-	-us.	-jus	Cra-
4AA/	-sti-	-mi-	ni-	-ti-	-ti-	-ti-	-cu-	-ti-	-ri-	-vi-	.	.	.	.	.	.	.	.	.	.	.	.
=5-	=5-	=5-	=5-	=5-	=5-	=5-	=5-	=5-	=5-	=5-	=5-	=5-	=5-	=5-	=5-	=5-	=5-	=5-	=5-	=5-	=5-	=5-
2GG,/	-a,	-no.	-a	-a	-a	-am.	-lum.	-fex.	-ta.	-a	.	1B	.	.	.	.	.	.	.	.	.	.
2G\	quae	sit	Pro-	Sta-	Re-	Qui	Splen-	tran-	Sa-	Sa-	.	.	.	.	.	.	.	.	.	.	.	.
*	*	*	*	*	*	*	*	*	*	*	*	*Xlig	*	*	*	*	*	*	*	*	*	*
(1A	coe-	Sem-	-le	ni-	-gis	dum	-dor	-sit	-lu-	-cro	.	1c	.	.	-lo-	gra-	-sti-	len-	-ra-	Pon-	me-	co-
=6-	=6-	=6-	=6-	=6-	=6-	=6-	=6-	=6-	=6-	=6-	=6-	=6-	=6-	=6-	=6-	=6-	=6-	=6-	=6-	=6-	=6-	=6-
1.G)	.	.	.	.	.	.	.	.	.	.	.	1B	.	.	.	.	.	.	.	.	.	.
.	.	.	.	.	.	.	.	.	.	.	.	2.A/	.	.	.	.	.	.	.	.	.	.
2F#X\	-li	-pi-	foe-	-sla-	non	con-	in	ad	-tis	do-	.	.	.	.	.	.	.	.	.	.	.	.
.	.	.	.	.	.	.	.	.	.	.	.	4A/	-sti-	-mi-	ni-	-ti-	-ti-	-ti-	-cu-	-ti-	-ri-	-vi-
=7-	=7-	=7-	=7-	=7-	=7-	=7-	=7-	=7-	=7-	=7-	=7-	=7-	=7-	=7-	=7-	=7-	=7-	=7-	=7-	=7-	=7-	=7-
[2G\	pan-	-ter-	-cun-	-i	ce-	-stan-	San-	coe-	do-	-ta-	.	0G,	-a	-no	-a	-a,	-a,	-am	-lum,	-fex,	-ta,	-a
2G\]	.	.	.	.	.	.	.	.	.	.	.	.	.	.	.	.	.	.	.	.	.	.
1C	-dis	-na	-da	Pon-	-dit	-ter	-cto	-li	-na	-ta	.	.	.	.	.	.	.	.	.	.	.	.
=8-	=8-	=8-	=8-	=8-	=8-	=8-	=8-	=8-	=8-	=8-	=8-	=8-	=8-	=8-	=8-	=8-	=8-	=8-	=8-	=8-	=8-	=8-
1.GG	o-	glo-	no-	-ti-	fu-	ar-	coe-	Cu-	re-	cor-	.	1B	Quae	Sit	Pro-	Sta-	Re-	Qui	splen-	tran-	Sa-	Sa-
.	.	.	.	.	.	.	.	.	.	.	.	1d	coe-	sem-	-le	ni-	-gis	dum	-dor	-sit	-lu-	-cro
2GG/	-st[i]-	-ri-	-bi-	-fi-	-ri-	-gu-	-li-	-ri-	-fe-	-po-	.	.	.	.	.	.	.	.	.	.	.	.
=9-	=9-	=9-	=9-	=9-	=9-	=9-	=9-	=9-	=9-	=9-	=9-	=9-	=9-	=9-	=9-	=9-	=9-	=9-	=9-	=9-	=9-	=9-
2C,/	-um.	-a,	-li,	-cis,	-ae	-it,	-cus.	-am,	-runt,	-re.	.	1c	-li	-pi-	foe-	-sla-	non	con-	in	ad	-tis	do-
2E\	bel-	qvi	sum-	Paſ-	stat	Mar-	re-	ut	mor-	DE-	[[fe-	.	.	.	.	.	.	.	.	.	.	.
!LO:TX:t=P:problem=dźwięk rekonstruowany, defekt źródła	!	!	!	!	!	!	!	!	!	!	!	!	!	!	!	!	!	!	!	!	!	!
2G\	-[la]	vi-	-mi	-si-	pro	-ty-	-din-	a-	-te	-um	-runt]]	2B\	pan-	-ter-	-cun-	-i	ce-	-stan-	San-	coe-	do-	-ta-
2D/	pre-	-tam	re-	-o-	ple-	-ri-	-te-	-pud	prae-	qui	.	1A\	-dis	-na	-da	Pon-	-dit	-ter	-cto	-li	-na	-ta
=10-	=10-	=10-	=10-	=10-	=10-	=10-	=10-	=10-	=10-	=10-	=10-	=10-	=10-	=10-	=10-	=10-	=10-	=10-	=10-	=10-	=10-	=10-
2AA/	.	.	.	.	.	.	.	.	.	.	.	.	.	.	.	.	.	.	.	.	.	.
4BB/	.	.	.	.	.	.	.	.	.	.	.	4D/	.	.	.	.	.	.	.	.	.	.
4C/	.	.	.	.	.	.	.	.	.	.	.	4E/	.	.	.	.	.	.	.	.	.	.
2D/	.	.	.	.	.	.	.	.	.	.	.	2F#X/	.	.	.	.	.	.	.	.	.	.
2E\	.	.	.	.	.	.	.	.	.	.	.	1G/	o-	glo-	no-	-ti-	fu-	ar-	coe-	cu-	re-	cor-
=11-	=11-	=11-	=11-	=11-	=11-	=11-	=11-	=11-	=11-	=11-	=11-	=11-	=11-	=11-	=11-	=11-	=11-	=11-	=11-	=11-	=11-	=11-
2D/	.	.	.	.	.	.	.	.	.	.	.	.	.	.	.	.	.	.	.	.	.	.
4D/	.	.	.	.	.	.	.	.	.	.	.	2F#X/	-sti-	-ri-	-bi-	-fi-	-ri-	-[gu]-	-[li]-	-ri-	-fe-	-po-
4C/	.	.	.	.	.	.	.	.	.	.	.	.	.	.	.	.	.	.	.	.	.	.
4BB/	.	.	.	.	.	.	.	.	.	.	.	0.G	-um.	-a	-li	-cis,	-ae,	-it,	-cus,	-am	-runt,	-re,
4AA/	.	.	.	.	.	.	.	.	.	.	.	.	.	.	.	.	.	.	.	.	.	.
4GG/	.	.	.	.	.	.	.	.	.	.	.	.	.	.	.	.	.	.	.	.	.	.
4FF#X/	.	.	.	.	.	.	.	.	.	.	.	.	.	.	.	.	.	.	.	.	.	.
=12-	=12-	=12-	=12-	=12-	=12-	=12-	=12-	=12-	=12-	=12-	=12-	=12-	=12-	=12-	=12-	=12-	=12-	=12-	=12-	=12-	=12-	=12-
2GG/	.	.	.	.	.	.	.	.	.	.	.	.	.	.	.	.	.	.	.	.	.	.
2GG/	-munt	si-	-gis	-nis	-bis	-j	-grat	DE-	-ven-	fe-	.	.	.	.	.	.	.	.	.	.	.	.
2C/	ho-	-ne	ma-	in-	in	vi-	cor-	-um	-ti	-cit	.	.	.	.	.	.	.	.	.	.	.	.
1E\	-sti-	ter-	-gna-	-ſi-	Ju-	-cto-	-pu-	o-	su-	om-	.	.	.	.	.	.	.	.	.	.	.	.
=13-	=13-	=13-	=13-	=13-	=13-	=13-	=13-	=13-	=13-	=13-	=13-	=13-	=13-	=13-	=13-	=13-	=13-	=13-	=13-	=13-	=13-	=13-
.	.	.	.	.	.	.	.	.	.	.	.	2r	.	.	.	.	.	.	.	.	.	.
2G\	.	.	.	.	.	.	.	.	.	.	.	2B\	bel-	qvi	sum-	Paſ-	stat	Mar-	re-	Ut	mor-	DE-
2F#X\	.	.	.	.	.	.	.	.	.	.	.	2d\	-la	vi-	-mi	-si-	pro	-ty-	-din-	a-	-te	-um
2G\	.	.	.	.	.	.	.	.	.	.	.	2d\	pre-	-tam	Re-	-o-	ple-	-ri-	-te-	-pud	prae-	qvi
=14-	=14-	=14-	=14-	=14-	=14-	=14-	=14-	=14-	=14-	=14-	=14-	=14-	=14-	=14-	=14-	=14-	=14-	=14-	=14-	=14-	=14-	=14-
1C	.	.	.	.	.	.	.	.	.	.	.	2e\	-munt	si-	-gis	-nis	-bis	-j	-grat	DE-	-ven-	fe-
.	.	.	.	.	.	.	.	.	.	.	.	2c\	ho-	-ne	ma-	in-	in	vi-	cor-	-um	-ti	-cit
*lig	*	*	*	*	*	*	*	*	*	*	*	*	*	*	*	*	*	*	*	*	*	*
1F	.	.	.	.	.	.	.	.	.	.	.	2.A/	-sti-	ter-	-gna-	-ſig-	Ju-	-cto-	-pu-	o-	su-	om-
.	.	.	.	.	.	.	.	.	.	.	.	4B\	.	.	.	.	.	.	.	.	.	.
=15-	=15-	=15-	=15-	=15-	=15-	=15-	=15-	=15-	=15-	=15-	=15-	=15-	=15-	=15-	=15-	=15-	=15-	=15-	=15-	=15-	=15-	=15-
1C	.	.	.	.	.	.	.	.	.	.	.	2.c\	.	.	.	.	.	.	.	.	.	.
.	.	.	.	.	.	.	.	.	.	.	.	4B\	.	.	.	.	.	.	.	.	.	.
*Xlig	*	*	*	*	*	*	*	*	*	*	*	*	*	*	*	*	*	*	*	*	*	*
2.D/	.	.	.	.	.	.	.	.	.	.	.	2.A/	.	.	.	.	.	.	.	.	.	.
4D/	-li-	mi-	-li-	-gni-	-ri-	-ri-	-scu-	-pi-	-bi-	-ni-	.	4A/	-li-	mi-	-li-	-ni-	-ri-	-ri-	-scu-	-pi-	-bi-	-ni-
=16-	=16-	=16-	=16-	=16-	=16-	=16-	=16-	=16-	=16-	=16-	=16-	=16-	=16-	=16-	=16-	=16-	=16-	=16-	=16-	=16-	=16-	=16-
2GG/	-a	-no	-a,	-a	-a.	-am	-lum,	-fex	-ta.	-a,	.	2B,\	-a	-no	-a	-a	-a,	-am,	-lum,	-fex,	-ta.	-a.
2GG/	da	no-	Lau-	sig-	chri-	mem-	spar-	no-	ad	be-	.	1B	da	no-	Lau-	Sig-	Chri-	mem-	spar-	no-	ad	be-
1AA	ro-	-bis	-de	-nis	-sti	-bra-	-ſum	-bis	vi-	-ne-	.	.	.	.	.	.	.	.	.	.	.	.
.	.	.	.	.	.	.	.	.	.	.	.	2A/	ro-	-bis	-de	-nis	-sti	-bra-	-ſum	-bis	vi-	-ne-
=17-	=17-	=17-	=17-	=17-	=17-	=17-	=17-	=17-	=17-	=17-	=17-	=17-	=17-	=17-	=17-	=17-	=17-	=17-	=17-	=17-	=17-	=17-
1GG	-bur	do-	fre-	ful-	mi-	-tim	coe-	im-	-tae	-dic	.	2B\	-bur	do-	fre-	ful-	mi-	-tim	coe-	im-	-tae	-dic
.	.	.	.	.	.	.	.	.	.	.	.	2d\	fer	-net	-qven-	-get	-les	cae-	-le-	-plo-	por-	om-
*	*	*	*	*	*	*	*	*	*	*	*	*lig	*	*	*	*	*	*	*	*	*	*
1AA	fer	-net	-qven-	-get	-les	cae-	-le-	-plo-	por-	om-	.	1c	au-	in	-ta	mi-	in	-ſus	-stis	-ret	-tum	-ni
=18-	=18-	=18-	=18-	=18-	=18-	=18-	=18-	=18-	=18-	=18-	=18-	=18-	=18-	=18-	=18-	=18-	=18-	=18-	=18-	=18-	=18-	=18-
1BB	au-	in	-ta	mi-	in	-ſus	-stis	-ret	-tum	-ni	.	1.B	.	.	.	.	.	.	.	.	.	.
*lig	*	*	*	*	*	*	*	*	*	*	*	*	*	*	*	*	*	*	*	*	*	*
1C	xi-	pa-	vi-	-ri-	a-	me-	me-	ve-	re-	tem-	.	.	.	.	.	.	.	.	.	.	.	.
*	*	*	*	*	*	*	*	*	*	*	*	*Xlig	*	*	*	*	*	*	*	*	*	*
.	.	.	.	.	.	.	.	.	.	.	.	1A\	xi-	pa-	vi-	-ri-	a-	me-	me-	ve-	re-	tem-
=19-	=19-	=19-	=19-	=19-	=19-	=19-	=19-	=19-	=19-	=19-	=19-	=19-	=19-	=19-	=19-	=19-	=19-	=19-	=19-	=19-	=19-	=19-
1BB	.	.	.	.	.	.	.	.	.	.	.	.	.	.	.	.	.	.	.	.	.	.
.	.	.	.	.	.	.	.	.	.	.	.	2G/	.	.	.	.	.	.	.	.	.	.
*Xlig	*	*	*	*	*	*	*	*	*	*	*	*	*	*	*	*	*	*	*	*	*	*
1AA	.	.	.	.	.	.	.	.	.	.	.	1A	.	.	.	.	.	.	.	.	.	.
=20-	=20-	=20-	=20-	=20-	=20-	=20-	=20-	=20-	=20-	=20-	=20-	=20-	=20-	=20-	=20-	=20-	=20-	=20-	=20-	=20-	=20-	=20-
2BB/	.	.	.	.	.	.	.	.	.	.	.	1G	.	.	.	.	.	.	.	.	.	.
2C/	.	.	.	.	.	.	.	.	.	.	.	.	.	.	.	.	.	.	.	.	.	.
!	!	!	!	!	!	!	!	!	!	!	!	!LO:TX:t=P:problem=♯ below	!	!	!	!	!	!	!	!	!	!
0D	-li-	-tri-	-gi-	-fi-	-ci-	ru-	-di-	-ni-	-de-	-po-	.	2F#X/	.	.	.	.	.	.	.	.	.	.
.	.	.	.	.	.	.	.	.	.	.	.	1G/	.	.	.	.	.	.	.	.	.	.
=21-	=21-	=21-	=21-	=21-	=21-	=21-	=21-	=21-	=21-	=21-	=21-	=21-	=21-	=21-	=21-	=21-	=21-	=21-	=21-	=21-	=21-	=21-
.	.	.	.	.	.	.	.	.	.	.	.	.	.	.	.	.	.	.	.	.	.	.
.	.	.	.	.	.	.	.	.	.	.	.	2F#/	-li-	-tri-	-gi-	-fi-	-ci-	ru-	-di-	-ni-	-de-	-po-
!LO:N:vis=0	!	!	!	!	!	!	!	!	!	!	!	!LO:N:vis=0	!	!	!	!	!	!	!	!	!	!
1GG;;	-um.	-a.	-li.	-cis.	-e.	-it.	-cus.	-am.	-unt.	-re.	.	1G;;	-um	-a.	-li,	-cis.	-e,	-it	-cus.	-am.	-unt.	-re.
==	==	==	==	==	==	==	==	==	==	==	==	==	==	==	==	==	==	==	==	==	==	==
*-	*-	*-	*-	*-	*-	*-	*-	*-	*-	*-	*-	*-	*-	*-	*-	*-	*-	*-	*-	*-	*-	*-
!!!system-decoration: [(s1,s2)]
!!!RDF**kern: > = above
!!!RDF**kern: < = below
!!!ENC: Kamil Watkowski
!!!END: 2021-07-10
